X:2385
T:Dooinney Seyr V'ayns Exeter 
T:(A Gentleman of Exeter)
C:John Quayle, Glion Meay 
C:Traditional
O:Isle of Man
N:See KV267,269,275
Z:Kiaull Vannin 385 
M:3/2 
L:1/8 
Q:80 
K:D 
B2|e2 (e>d) e4 (B2d2)|(cB) A2 B6 B2|g2 (g>e) f4 (e2c2)|d2 e2 f6 (ga)| 
b2 g2 (g3f) e2 d2|(ef) g2 B6 (BA)|G2 A2 B4 (g2e2)|f2 {g}f2 e6|| 

